storage/app/icons/phosphoricons/thin/airplay-thin.svg

<svg xmlns="http://www.w3.org/2000/svg" fill="currentColor" viewBox="0 0 256 256"><path d="M131 157.4a4 4 0 0 0-6.07 0l-48 56a4 4 0 0 0 3 6.6h96a4 4 0 0 0 3-6.6ZM88.7 212l39.3-45.85L167.3 212ZM228 64v112a20 20 0 0 1-20 20h-8a4 4 0 0 1 0-8h8a12 12 0 0 0 12-12V64a12 12 0 0 0-12-12H48a12 12 0 0 0-12 12v112a12 12 0 0 0 12 12h8a4 4 0 0 1 0 8h-8a20 20 0 0 1-20-20V64a20 20 0 0 1 20-20h160a20 20 0 0 1 20 20"/></svg>

<svg xmlns="http://www.w3.org/2000/svg" viewBox="0 0 256 256" fill="currentColor"><path d="M131,157.4a4,4,0,0,0-6.07,0l-48,56a4,4,0,0,0,3,6.6h96a4,4,0,0,0,3-6.6ZM88.7,212,128,166.15,167.3,212ZM228,64V176a20,20,0,0,1-20,20h-8a4,4,0,0,1,0-8h8a12,12,0,0,0,12-12V64a12,12,0,0,0-12-12H48A12,12,0,0,0,36,64V176a12,12,0,0,0,12,12h8a4,4,0,0,1,0,8H48a20,20,0,0,1-20-20V64A20,20,0,0,1,48,44H208A20,20,0,0,1,228,64Z"/></svg>
